X:1
T:The Cowboy
M:2/4
L:1/8
K:F
 C/2C/2| FF A c/2A/2| BB d c/2B/2| AA c c/2A/2| GG c| c| FF A c/2A/2|\
 BB dB| A A/2B/2 cA| G2 F||

